X:1640
T:Draw the Sword Scotland. CJF.176
O:england
M:C
L:1/8
Q:100
S: C.J.Fox MS, 1829/33, Beverley,E.Yorks.
R:Air
A:East Yorkshire
B:Kidson Coll.Mitchell Lib.M1805
K:G
B>AB>cd2g2|e2g2d2g2|B>AB>cd2g>f|e>dc>BA2g>a|
b2a>ga2d2|g2e2d2B>g|b2a>g ad2g|e>gf>ag2zg|
g2f>ef2^d2|e2c2B2A>A|B>AB>cd2g>a|b2a>ga2zg|
bbaga2d2|g2e2d2B>B|BABc dhg2g|e>gf>ahg2z2|
B>AB>cd2g2|e2g2d2g2|B>ABcd2g>f|e>dc>BhA2z2|
b2a>ga2d>d|g2e>eB2G2|B>AB>c dhg2e|e>gf>ag2z2||
